X: 147
T: The Judique Jig
T: Jig, A
L: 1/16
M: 6/8
K: A
|: c2| e2f2e2 c4d2| e2f2e2 c4e2| d2c2d2 B4c2| d6 d2c2d2| e2f2e2 c2e2=g2| f2e2f2 d2f2a2| g4b2 g2f2g2| a6 a4:| 
|: e2| a2g2f2 e2d2c2| B2c2d2 f4e2| c2d2e2 a4e2| c2d2e2 f4g2| a2g2f2 e2d2c2| B2c2d2 f4a2| e2f2e2 d2c2B2| A6 A4:|
